flaticon/dialogue/messenger.svg

<svg xmlns="http://www.w3.org/2000/svg" width="32" height="32" viewBox="0 0 24 24">
    <path d="M 21.601562 0.800781 L 2.398438 0.800781 C 1.097656 0.800781 0 1.898438 0 3.199219 L 0 16.398438 C 0 17.699219 1.097656 18.800781 2.398438 18.800781 L 5.601562 18.800781 L 5.601562 22.800781 C 5.601562 22.964844 5.703125 23.113281 5.855469 23.171875 C 5.902344 23.191406 5.953125 23.199219 6 23.199219 C 6.109375 23.199219 6.21875 23.15625 6.296875 23.070312 L 10.175781 18.800781 L 21.601562 18.800781 C 22.902344 18.800781 24 17.699219 24 16.398438 L 24 3.199219 C 24 1.898438 22.902344 0.800781 21.601562 0.800781 Z M 23.199219 16.398438 C 23.199219 17.265625 22.46875 18 21.601562 18 L 10 18 C 9.886719 18 9.78125 18.046875 9.703125 18.128906 L 6.398438 21.765625 L 6.398438 18.398438 C 6.398438 18.179688 6.222656 18 6 18 L 2.398438 18 C 1.53125 18 0.800781 17.265625 0.800781 16.398438 L 0.800781 3.199219 C 0.800781 2.332031 1.53125 1.601562 2.398438 1.601562 L 21.601562 1.601562 C 22.46875 1.601562 23.199219 2.332031 23.199219 3.199219 Z M 23.199219 16.398438"/>
    <path d="M 20.222656 4.867188 C 20.054688 4.753906 19.828125 4.785156 19.695312 4.941406 L 15.136719 10.261719 L 8.234375 5.277344 C 8.140625 5.207031 8.019531 5.183594 7.90625 5.210938 C 7.789062 5.238281 7.695312 5.316406 7.640625 5.421875 L 3.640625 13.421875 C 3.554688 13.601562 3.609375 13.816406 3.773438 13.929688 C 3.9375 14.042969 4.160156 14.015625 4.296875 13.871094 L 8.054688 9.734375 L 14.964844 14.722656 C 15.035156 14.773438 15.117188 14.800781 15.199219 14.800781 C 15.230469 14.800781 15.261719 14.796875 15.292969 14.789062 C 15.40625 14.761719 15.5 14.6875 15.554688 14.585938 L 20.355469 5.386719 C 20.449219 5.203125 20.390625 4.980469 20.222656 4.867188 Z M 15.058594 13.804688 L 8.234375 8.875 C 8.164062 8.824219 8.082031 8.800781 8 8.800781 C 7.890625 8.800781 7.78125 8.84375 7.703125 8.929688 L 5.65625 11.1875 L 8.148438 6.199219 L 14.964844 11.125 C 15.132812 11.246094 15.367188 11.21875 15.503906 11.058594 L 18.027344 8.117188 Z M 15.058594 13.804688"/>
</svg>

<svg xmlns="http://www.w3.org/2000/svg" width="32" height="32" viewBox="0 0 24 24">
    <path d="M21.602.8H2.398C1.098.8 0 1.899 0 3.2v13.198c0 1.301 1.098 2.403 2.398 2.403h3.204v4a.398.398 0 0 0 .398.398.4.4 0 0 0 .297-.129l3.879-4.27h11.426c1.3 0 2.398-1.1 2.398-2.402V3.2C24 1.9 22.902.801 21.602.801zm1.597 15.598A1.62 1.62 0 0 1 21.602 18H10a.408.408 0 0 0-.297.129l-3.305 3.637v-3.368A.398.398 0 0 0 6 18H2.398a1.62 1.62 0 0 1-1.597-1.602V3.2c0-.867.73-1.597 1.597-1.597h19.204c.867 0 1.597.73 1.597 1.597zm0 0"/>
    <path d="M20.223 4.867a.399.399 0 0 0-.528.074l-4.558 5.32-6.903-4.984a.402.402 0 0 0-.594.145l-4 8a.404.404 0 0 0 .133.508.405.405 0 0 0 .524-.059l3.758-4.137 6.91 4.989a.402.402 0 0 0 .328.066.405.405 0 0 0 .262-.203l4.8-9.2a.405.405 0 0 0-.132-.519zm-5.164 8.938l-6.825-4.93A.397.397 0 0 0 8 8.801a.4.4 0 0 0-.297.129l-2.047 2.258 2.492-4.989 6.817 4.926a.4.4 0 0 0 .539-.066l2.523-2.942zm0 0"/>
</svg>
